src/qt/res/src/qt.svg

<svg enable-background="new 0 0 841.9 595.3" height="609.4" viewBox="0 0 609.4 609.4" width="609.4" xmlns="http://www.w3.org/2000/svg"><path d="m153.7 16.9c-38.7-.46-84 14.77-85.74 69.91v463.89l37.04 41.7 390.9-65.7c25.5-4.6 46-36.5 46-70.8v-378.13l-358.5-58.8c-4-.67-22-1.97-25.9-1.98-1.3-.05-2.5-.08-3.8-.09zm119.8 107.2c4.6 0 9.2.2 13.8.8v.1c32.7 3.8 56.4 19.2 72 45.9 15.3 26.2 22.7 63.7 22.7 113.1 0 45.2-5.6 80.7-16.6 106.7-11.2 26.5-28.3 43.9-52 52.1 2.5 12.2 6.1 20.4 10.7 24.7 2.8 2.3 6.6 3.9 11.2 4.4h.3.7 5.2c2 0 3 .5 6.8 0v36l-16.3 2.3c-4.8.5-9.4.7-13.8.7-14.3 0-25.8-3.3-34.7-10.4-11.5-9.2-19.9-27.1-25.3-53.4-25-5.3-44.7-21.2-58.2-48-13.5-27-20.7-66.9-20.7-118.7 0-55.9 9.7-97.2 28.4-123.4 16.1-22.1 38-32.9 65.8-32.9zm150.9 19.4 30.7 3.4v55.3l33.1 2.6v34.7l-33.1-1.7v126.9c0 10.9 2.5 18.1 5.1 21.4 0 2.8 5.1 4.3 7.6 4.3h2.6c7.6-.5 15.3-2.5 23-6.3v31.6c-15.4 6.4-28.1 10-43.4 11.2 0 .3-2.6.3-5.2.3-12.7 0-20.4-3.6-28-10.7-7.7-8.4-12.8-22-12.8-40.4v-140.5l-13.8-.8v-37.2l21.5 1.5zm-139.9 22.9c-12 0-21.2 6.9-27.6 20.9-6.8 15.2-10.2 46.6-10.2 94.4 0 45.9 3.4 78.6 10.2 97.8 6.4 18.3 16.1 27.3 28.9 27.3h1.5c12.8-.8 22.2-9.7 28.9-26.3 6.4-16.6 9.4-49 9.4-97.5 0-43.6-3-73.5-9.4-90-6.4-16.6-16.1-25.5-28.9-26.6z" transform="matrix(1.0000101 0 0 1.0000101 .1154 -.0959)"/></svg>

<?xml version="1.0" encoding="UTF-8" standalone="no"?>
<svg
   xmlns:dc="http://purl.org/dc/elements/1.1/"
   xmlns:cc="http://creativecommons.org/ns#"
   xmlns:rdf="http://www.w3.org/1999/02/22-rdf-syntax-ns#"
   xmlns:svg="http://www.w3.org/2000/svg"
   xmlns="http://www.w3.org/2000/svg"
   version="1.1"
   id="Ebene_1"
   x="0px"
   y="0px"
   viewBox="0 0 609.4 609.4"
   enable-background="new 0 0 841.9 595.3"
   xml:space="preserve"
   width="609.4"
   height="609.4"><metadata
     id="metadata13"><rdf:RDF><cc:Work
         rdf:about=""><dc:format>image/svg+xml</dc:format><dc:type
           rdf:resource="http://purl.org/dc/dcmitype/StillImage" /><dc:title></dc:title></cc:Work></rdf:RDF></metadata><defs
     id="defs11" /><g
     id="g4151"
     transform="matrix(2.553,0,0,2.553,-2149,281.5)"><path
       id="path26"
       transform="matrix(0.3917,0,0,0.3917,841.8,-110.3)"
       d="M 153.7 16.9 C 115 16.44 69.7 31.67 67.96 86.81 L 67.96 550.7 L 105 592.4 L 495.9 526.7 C 521.4 522.1 541.9 490.2 541.9 455.9 L 541.9 77.77 L 183.4 18.97 C 179.4 18.3 161.4 17 157.5 16.99 C 156.2 16.94 155 16.91 153.7 16.9 z M 273.5 124.1 C 278.1 124.1 282.7 124.3 287.3 124.9 L 287.3 125 C 320 128.8 343.7 144.2 359.3 170.9 C 374.6 197.1 382 234.6 382 284 C 382 329.2 376.4 364.7 365.4 390.7 C 354.2 417.2 337.1 434.6 313.4 442.8 C 315.9 455 319.5 463.2 324.1 467.5 C 326.9 469.8 330.7 471.4 335.3 471.9 L 335.6 471.9 L 336.3 471.9 L 341.5 471.9 C 343.5 471.9 344.5 472.4 348.3 471.9 L 348.3 507.9 L 332 510.2 C 327.2 510.7 322.6 510.9 318.2 510.9 C 303.9 510.9 292.4 507.6 283.5 500.5 C 272 491.3 263.6 473.4 258.2 447.1 C 233.2 441.8 213.5 425.9 200 399.1 C 186.5 372.1 179.3 332.2 179.3 280.4 C 179.3 224.5 189 183.2 207.7 157 C 223.8 134.9 245.7 124.1 273.5 124.1 z M 424.4 143.5 L 455.1 146.9 L 455.1 202.2 L 488.2 204.8 L 488.2 239.5 L 455.1 237.8 L 455.1 364.7 C 455.1 375.6 457.6 382.8 460.2 386.1 C 460.2 388.9 465.3 390.4 467.8 390.4 L 470.4 390.4 C 478 389.9 485.7 387.9 493.4 384.1 L 493.4 415.7 C 478 422.1 465.3 425.7 450 426.9 C 450 427.2 447.4 427.2 444.8 427.2 C 432.1 427.2 424.4 423.6 416.8 416.5 C 409.1 408.1 404 394.5 404 376.1 L 404 235.6 L 390.2 234.8 L 390.2 197.6 L 411.7 199.1 L 424.4 143.5 z M 284.5 166.4 C 272.5 166.4 263.3 173.3 256.9 187.3 C 250.1 202.5 246.7 233.9 246.7 281.7 C 246.7 327.6 250.1 360.3 256.9 379.5 C 263.3 397.8 273 406.8 285.8 406.8 L 287.3 406.8 C 300.1 406 309.5 397.1 316.2 380.5 C 322.6 363.9 325.6 331.5 325.6 283 C 325.6 239.4 322.6 209.5 316.2 193 C 309.8 176.4 300.1 167.5 287.3 166.4 L 284.5 166.4 z "
       style="fill:#000000;fill-opacity:1;fill-rule:nonzero;stroke:none" /></g></svg>
